src/images/trading_app/header/portfolio/ic-portfolio-active-light.svg

<?xml version="1.0" encoding="UTF-8"?>
<svg width="16px" height="16px" viewBox="0 0 16 16" version="1.1" xmlns="http://www.w3.org/2000/svg" xmlns:xlink="http://www.w3.org/1999/xlink">
    <!-- Generator: Sketch 49 (51002) - http://www.bohemiancoding.com/sketch -->
    <title>icons/system/binary/header/portfolio/ic-portfolio-active-light</title>
    <desc>Created with Sketch.</desc>
    <defs></defs>
    <g id="icons/system/binary/header/portfolio/ic-portfolio-active-light" stroke="none" stroke-width="1" fill="none" fill-rule="evenodd">
        <g id="icons/active/portfolio" transform="translate(0.000000, 1.000000)">
            <rect id="rec-portfolio-body-copy" fill="#2A3052" x="0" y="2" width="16" height="12" rx="1"></rect>
            <path d="M3.15138782,9.5 L12.8486122,9.5 L15.2773501,7.88084139 C15.4164494,7.7881085 15.5,7.63199284 15.5,7.46481624 L15.5,3 C15.5,2.72385763 15.2761424,2.5 15,2.5 L1,2.5 C0.723857625,2.5 0.5,2.72385763 0.5,3 L0.5,7.46481624 C0.5,7.63199284 0.583550568,7.7881085 0.722649902,7.88084139 L3.15138782,9.5 Z" id="Rectangle" stroke="#FFFFFF"></path>
            <rect id="Rectangle-2" fill="#FFFFFF" x="6" y="7" width="4" height="1" rx="0.5"></rect>
            <rect id="rec-portfolio-body-copy" stroke="#2A3052" x="0.5" y="2.5" width="15" height="11" rx="1"></rect>
            <path d="M5.5,2.5 L10.5,2.5 L10.5,1 C10.5,0.723857625 10.2761424,0.5 10,0.5 L6,0.5 C5.72385763,0.5 5.5,0.723857625 5.5,1 L5.5,2.5 Z" id="rec-portfolio-holder" stroke="#2A3052"></path>
        </g>
    </g>
</svg>

<svg width="16" height="16" viewBox="0 0 16 16" xmlns="http://www.w3.org/2000/svg"><title>icons/system/binary/header/portfolio/ic-portfolio-active-light</title><g transform="translate(0 1)" fill="none" fill-rule="evenodd"><rect fill="#2A3052" y="2" width="16" height="12" rx="1"/><path d="M3.151 9.5h9.698l2.428-1.62a.5.5 0 0 0 .223-.415V3a.5.5 0 0 0-.5-.5H1a.5.5 0 0 0-.5.5v4.465a.5.5 0 0 0 .223.416L3.15 9.5z" stroke="#FFF"/><rect fill="#FFF" x="6" y="7" width="4" height="1" rx=".5"/><rect stroke="#2A3052" x=".5" y="2.5" width="15" height="11" rx="1"/><path d="M5.5 2.5h5V1a.5.5 0 0 0-.5-.5H6a.5.5 0 0 0-.5.5v1.5z" stroke="#2A3052"/></g></svg>
